icons/public-o.svg

<svg width="24" height="24" viewBox="0 0 24 24" xmlns="http://www.w3.org/2000/svg">
    <path
        d="M3.62793 10.6136C3.78988 10.772 3.97169 10.9548 4.17273 11.1602C4.99483 12 4.99891 12 6.00094 12H7.98895C8.54063 12 9.00355 12.4358 9.00355 13.0151V15.8883C9.00355 16.5786 9.31492 16.9959 9.99067 16.9959H11.0001C11.6627 16.9959 11.9947 17.4931 11.9947 18.0248V18.993C11.9947 19.1465 12.4243 20.3727 12.5001 20.5"
        stroke="#222222" stroke-width="2" />
    <path
        d="M16.4996 20C16.9997 18.2506 17.9979 15.3918 17.9979 15.0591V14.0096C17.9979 13.4645 17.3985 13 16.0094 13H15.0862C14.7055 13 14.6422 13 13.9852 13C13.3282 13 12.9983 12.6667 12.9955 12C12.9979 11.3333 12.6654 11 11.9981 11C11.0527 11 11.0002 10.2898 10.9972 10.028L10.9971 9.98673C10.9971 9.76967 11.0283 8.99958 11.9605 8.99958H11.9981C12.4704 8.99958 12.9955 8.61567 12.9996 8.03572C13.0038 7.45577 13.0038 7.48793 12.9996 7.00144C12.9955 6.51495 13.5176 6.00384 14.0304 6.00384C14.5432 6.00384 14.9955 5.67101 14.9955 4.9946L14.9996 3.5"
        stroke="#222222" stroke-width="2" />
    <circle cx="12" cy="12" r="9" stroke="#222222" stroke-width="2" />
</svg>

<svg xmlns="http://www.w3.org/2000/svg" width="24" height="24" viewBox="0 0 24 24">
    <path stroke-width="2"
        d="M3.628 10.614c.162.158.344.34.545.546.822.84.826.84 1.828.84h1.988c.552 0 1.015.436 1.015 1.015v2.873c0 .69.31 1.108.987 1.108H11c.662 0 .994.497.994 1.029v.968c0 .154.43 1.38.505 1.507M16.5 20c.5-1.75 1.498-4.608 1.498-4.94v-1.05c0-.546-.6-1.01-1.989-1.01h-2.023c-.658 0-.988-.333-.99-1 .002-.667-.33-1-.998-1-.945 0-.998-.71-1-.972v-.041c0-.217.03-.987.963-.987h.037c.472 0 .998-.384 1.002-.964.004-.58.004-.548 0-1.035-.005-.486.518-.997 1.03-.997.513 0 .966-.333.966-1.01L15 3.5" />
    <circle cx="12" cy="12" r="9" stroke-width="2" />
</svg>
